Obsidian-Light/actions/scalable/go-bottom-symbolic.svg

<svg height="16" width="16" xmlns="http://www.w3.org/2000/svg"><path d="m5.96875 1.03125v3.9375h-2.96875l5 8.03125 5-8.03125h-2.96875v-3.9375zm2.03125 11.96875h-5v2h10v-2z" fill="#bebebe"/></svg>

<?xml version="1.0" encoding="UTF-8" standalone="no"?>
<!-- Created with Inkscape (http://www.inkscape.org/) -->

<svg
   xmlns:dc="http://purl.org/dc/elements/1.1/"
   xmlns:cc="http://creativecommons.org/ns#"
   xmlns:rdf="http://www.w3.org/1999/02/22-rdf-syntax-ns#"
   xmlns:svg="http://www.w3.org/2000/svg"
   xmlns="http://www.w3.org/2000/svg"
   xmlns:xlink="http://www.w3.org/1999/xlink"
   xmlns:sodipodi="http://sodipodi.sourceforge.net/DTD/sodipodi-0.dtd"
   xmlns:inkscape="http://www.inkscape.org/namespaces/inkscape"
   width="16"
   height="16"
   id="svg2"
   sodipodi:version="0.32"
   inkscape:version="0.48.1 r9760"
   version="1.0"
   sodipodi:docname="go-bottom.svg"
   inkscape:output_extension="org.inkscape.output.svg.inkscape">
  <defs
     id="defs4">
    <inkscape:perspective
       sodipodi:type="inkscape:persp3d"
       inkscape:vp_x="0 : 8 : 1"
       inkscape:vp_y="0 : 1000 : 0"
       inkscape:vp_z="16 : 8 : 1"
       inkscape:persp3d-origin="8 : 5.3333333 : 1"
       id="perspective18" />
    <linearGradient
       id="StandardGradient"
       gradientTransform="scale(0.915489,1.0923124)"
       x1="8.7384996"
       y1="1.8452826"
       x2="8.7384996"
       y2="12.802542"
       gradientUnits="userSpaceOnUse">
      <stop
         id="stop3284"
         offset="0"
         style="stop-color:#000000;stop-opacity:0.86274511;" />
      <stop
         id="stop3286"
         offset="1"
         style="stop-color:#000000;stop-opacity:0.47058824;" />
    </linearGradient>
    <inkscape:perspective
       id="perspective3648"
       inkscape:persp3d-origin="0.5 : 0.33333333 : 1"
       inkscape:vp_z="1 : 0.5 : 1"
       inkscape:vp_y="0 : 1000 : 0"
       inkscape:vp_x="0 : 0.5 : 1"
       sodipodi:type="inkscape:persp3d" />
    <linearGradient
       inkscape:collect="always"
       xlink:href="#StandardGradient"
       id="linearGradient3627"
       gradientUnits="userSpaceOnUse"
       gradientTransform="matrix(0.915489,0,0,1.0923124,-20,0)"
       x1="8.7384996"
       y1="1.8452826"
       x2="8.7384996"
       y2="12.802542" />
    <clipPath
       clipPathUnits="userSpaceOnUse"
       id="clipPath3640">
      <path
         style="fill:#ff00ff;fill-opacity:1;stroke:none;display:inline"
         d="m -20,0 0,16 16,0 0,-16 -16,0 z m 5.96875,2.03125 4.0625,0 -0.03125,3.9375 3,0 -5,8.03125 -5,-8.03125 2.96875,0 0,-3.9375 z"
         id="path3642" />
    </clipPath>
    <linearGradient
       inkscape:collect="always"
       xlink:href="#StandardGradient"
       id="linearGradient2841"
       gradientUnits="userSpaceOnUse"
       gradientTransform="matrix(0.915489,0,0,1.0923124,0,-1)"
       x1="8.7384996"
       y1="1.8452826"
       x2="8.7384996"
       y2="12.802542" />
    <linearGradient
       inkscape:collect="always"
       xlink:href="#StandardGradient"
       id="linearGradient3625"
       gradientUnits="userSpaceOnUse"
       gradientTransform="scale(0.915489,1.0923124)"
       x1="8.7384996"
       y1="1.8452826"
       x2="8.7384996"
       y2="14.647824" />
    <linearGradient
       inkscape:collect="always"
       xlink:href="#StandardGradient"
       id="linearGradient3629"
       gradientUnits="userSpaceOnUse"
       gradientTransform="matrix(0.915489,0,0,1.0923124,0,-1)"
       x1="8.7384996"
       y1="1.8452826"
       x2="8.7384996"
       y2="14.647824" />
    <linearGradient
       inkscape:collect="always"
       xlink:href="#StandardGradient"
       id="linearGradient3634"
       gradientUnits="userSpaceOnUse"
       gradientTransform="matrix(0.915489,0,0,1.0923124,-20,-1)"
       x1="8.7384996"
       y1="1.8452826"
       x2="8.7384996"
       y2="14.647824" />
    <clipPath
       clipPathUnits="userSpaceOnUse"
       id="clipPath3643">
      <path
         style="fill:#ff00ff;fill-opacity:1;stroke:none;display:inline"
         d="m -20,0 0,16 16,0 0,-16 -16,0 z m 5.96875,1.03125 4.0625,0 0,3.9375 2.96875,0 -5,8.03125 5,0 0,2 -10,0 0,-2 5,0 -5,-8.03125 2.96875,0 0,-3.9375 z"
         id="path3645" />
    </clipPath>
    <linearGradient
       inkscape:collect="always"
       xlink:href="#StandardGradient"
       id="linearGradient4993"
       gradientUnits="userSpaceOnUse"
       gradientTransform="matrix(0.915489,0,0,1.0923124,0,-1)"
       x1="8.7384996"
       y1="1.8452826"
       x2="8.7384996"
       y2="14.647824" />
    <linearGradient
       inkscape:collect="always"
       xlink:href="#StandardGradient"
       id="linearGradient4997"
       gradientUnits="userSpaceOnUse"
       gradientTransform="matrix(0.915489,0,0,1.0923124,0,-1)"
       x1="8.7384996"
       y1="1.8452826"
       x2="8.7384996"
       y2="14.647824" />
  </defs>
  <sodipodi:namedview
     id="base"
     pagecolor="#ffffff"
     bordercolor="#9a9a9a"
     borderopacity="1"
     inkscape:pageopacity="0.0"
     inkscape:pageshadow="2"
     inkscape:zoom="17.578557"
     inkscape:cx="-23.269421"
     inkscape:cy="8.4726224"
     inkscape:document-units="px"
     inkscape:current-layer="layer4"
     showgrid="true"
     inkscape:showpageshadow="false"
     showguides="true"
     inkscape:guide-bbox="true"
     inkscape:window-width="1920"
     inkscape:window-height="1028"
     inkscape:window-x="0"
     inkscape:window-y="25"
     inkscape:window-maximized="1">
    <sodipodi:guide
       orientation="1,0"
       position="0,112"
       id="guide2383" />
    <sodipodi:guide
       orientation="0,1"
       position="26.278146,128"
       id="guide2385" />
    <sodipodi:guide
       orientation="1,0"
       position="128,54.082119"
       id="guide2387" />
    <sodipodi:guide
       orientation="0,1"
       position="78.156291,0"
       id="guide2389" />
    <inkscape:grid
       type="xygrid"
       id="grid3672"
       visible="true"
       enabled="true" />
  </sodipodi:namedview>
  <metadata
     id="metadata7">
    <rdf:RDF>
      <cc:Work
         rdf:about="">
        <dc:format>image/svg+xml</dc:format>
        <dc:type
           rdf:resource="http://purl.org/dc/dcmitype/StillImage" />
      </cc:Work>
    </rdf:RDF>
  </metadata>
  <g
     inkscape:groupmode="layer"
     id="layer4"
     inkscape:label="Arrow"
     style="display:inline">
    <path
       style="fill:#bebebe;fill-opacity:1;stroke:none;display:inline"
       d="M 5.96875 1.03125 L 5.96875 4.96875 L 3 4.96875 L 8 13 L 13 4.96875 L 10.03125 4.96875 L 10.03125 1.03125 L 5.96875 1.03125 z M 8 13 L 3 13 L 3 15 L 13 15 L 13 13 L 8 13 z "
       id="Symbol" />
  </g>
</svg>
